icon-themes/sifr_svg/cmd/lc_moveup.svg

<svg viewBox="0 0 24 24" xmlns="http://www.w3.org/2000/svg"><path d="m2 2v2h20v-2zm0 4v2h10v-2zm15.220703 0-3.939453 4.25c-.19095.19768-.28125.395782-.28125.75v.587891.412109h1c.455742 0 .660756-.337899 1-.683594l3-3.316406 3 3.316406c.330518.385798.515682.683594 1 .683594h1v-.412109-.587891c0-.30945-.0903-.55232-.28125-.75l-3.882812-4.25zm-15.220703 10v2h13v-2zm0 4v2h20v-2z" fill="#555753"/></svg>

<svg xmlns="http://www.w3.org/2000/svg" viewBox="0 0 24 24">
  <path
     style="fill:#555753"
     d="M 2 2 L 2 4 L 22 4 L 22 2 L 2 2 z M 2 6 L 2 8 L 12 8 L 12 6 L 2 6 z M 17.220703 6 L 13.28125 10.25 C 13.0903 10.44768 13 10.645782 13 11 L 13 11.587891 L 13 12 L 14 12 C 14.455742 12 14.660756 11.662101 15 11.316406 L 18 8 L 21 11.316406 C 21.330518 11.702204 21.515682 12 22 12 L 23 12 L 23 11.587891 L 23 11 C 23 10.69055 22.9097 10.44768 22.71875 10.25 L 18.835938 6 L 17.220703 6 z M 2 16 L 2 18 L 15 18 L 15 16 L 2 16 z M 2 20 L 2 22 L 22 22 L 22 20 L 2 20 z "
     />
</svg>
